web/public/images/startup-logos/LeftLaneLogo_1.svg

<svg width="488" height="149" viewBox="0 0 488 149" fill="none" xmlns="http://www.w3.org/2000/svg">
<path d="M21.8592 148.354L20.9165 148.365C18.9894 148.391 17.0988 148.141 15.2446 147.62C13.3904 147.094 11.6456 146.312 10.0206 145.281C8.39042 144.25 6.9425 143.005 5.68209 141.552C4.41646 140.099 3.38521 138.495 2.58834 136.74C1.79146 134.984 1.26542 133.151 1.005 131.245C0.744587 129.333 0.760211 127.427 1.05709 125.526C1.35396 123.62 1.91125 121.797 2.73938 120.057C3.5675 118.318 4.63 116.734 5.91646 115.302L32.8592 85.4323C33.7029 84.5 34.4477 83.4948 35.0988 82.4166C35.7498 81.3385 36.2967 80.2135 36.729 79.0364C37.1665 77.8541 37.4894 76.6458 37.6925 75.4062C37.9008 74.1614 37.9842 72.9166 37.9529 71.6562C37.9217 70.401 37.7706 69.1614 37.4998 67.9323C37.229 66.7031 36.8488 65.5104 36.3488 64.3541C35.854 63.2031 35.255 62.1041 34.5467 61.0625C33.8383 60.0208 33.0415 59.0573 32.1508 58.1666L8.60917 34.6354C-3.77104 22.2708 4.80188 1.10936 22.3071 0.833315C24.8956 0.791648 27.3904 1.23436 29.8019 2.17186C32.2081 3.10415 34.354 4.45832 36.2342 6.23436L91.5571 58.4375C92.0363 58.8906 92.4946 59.3698 92.9321 59.8698C93.3644 60.3698 93.7706 60.8906 94.156 61.4323C94.5363 61.9791 94.8904 62.5364 95.2133 63.1146C95.5415 63.6927 95.8383 64.2812 96.104 64.8906C96.3696 65.5 96.604 66.1146 96.8071 66.7448C97.0102 67.3802 97.1821 68.0156 97.3227 68.6666C97.4633 69.3125 97.5727 69.9687 97.6456 70.625C97.7185 71.2812 97.7602 71.9427 97.7654 72.6094C97.7758 73.2708 97.7498 73.9323 97.6925 74.5937C97.63 75.25 97.5415 75.9062 97.4165 76.5573C97.2915 77.2083 97.1352 77.8541 96.9425 78.4896C96.755 79.125 96.5363 79.7448 96.281 80.3594C96.031 80.9739 95.7498 81.5729 95.4373 82.1562C95.1248 82.7396 94.7863 83.3073 94.4165 83.8594C94.0467 84.4114 93.6508 84.9427 93.229 85.4531C92.8071 85.9635 92.3592 86.4531 91.8852 86.9166L35.5206 142.63C33.7029 144.427 31.6092 145.823 29.2446 146.812C26.8852 147.802 24.4217 148.318 21.8592 148.354Z" fill="white"/>
<path d="M106.297 148.354L105.354 148.365C103.427 148.391 101.532 148.141 99.6773 147.62C97.8232 147.094 96.0836 146.313 94.4534 145.281C92.8284 144.25 91.3805 143.005 90.1148 141.552C88.8492 140.099 87.8232 138.495 87.0263 136.74C86.2294 134.984 85.6982 133.151 85.4378 131.245C85.1773 129.333 85.1982 127.427 85.4898 125.526C85.7867 123.62 86.3492 121.797 87.1773 120.057C88.0055 118.318 89.0628 116.734 90.3544 115.302L117.297 85.4323C118.141 84.5 118.886 83.4948 119.537 82.4167C120.188 81.3386 120.729 80.2136 121.167 79.0313C121.604 77.8542 121.922 76.6459 122.13 75.4063C122.334 74.1615 122.422 72.9167 122.386 71.6563C122.354 70.4011 122.203 69.1615 121.933 67.9323C121.667 66.7031 121.282 65.5104 120.787 64.3542C120.287 63.2031 119.688 62.1042 118.979 61.0625C118.276 60.0209 117.479 59.0573 116.589 58.1667L93.0419 34.6354C80.6669 22.2709 89.2398 1.10939 106.74 0.833348C109.323 0.791682 111.818 1.2396 114.229 2.17189C116.636 3.10939 118.782 4.45835 120.657 6.23439L175.985 58.4375C176.469 58.8906 176.927 59.3698 177.36 59.8698C177.797 60.375 178.203 60.8959 178.584 61.4375C178.969 61.9792 179.323 62.5365 179.646 63.1146C179.974 63.6927 180.271 64.2865 180.537 64.8906C180.802 65.5 181.037 66.1198 181.24 66.75C181.443 67.3802 181.615 68.0209 181.755 68.6667C181.896 69.3125 182 69.9688 182.078 70.625C182.151 71.2865 182.193 71.9427 182.198 72.6094C182.209 73.2709 182.183 73.9323 182.12 74.5938C182.063 75.25 181.974 75.9063 181.849 76.5573C181.724 77.2084 181.568 77.8542 181.375 78.4896C181.188 79.125 180.969 79.75 180.714 80.3594C180.464 80.974 180.183 81.5729 179.87 82.1563C179.558 82.7448 179.214 83.3125 178.849 83.8594C178.479 84.4115 178.084 84.9427 177.662 85.4531C177.235 85.9636 176.792 86.4531 176.318 86.9167L119.953 142.63C118.136 144.427 116.042 145.823 113.683 146.813C111.318 147.802 108.854 148.318 106.297 148.354Z" fill="white"/>
<path d="M218 50H229.5V77.9583H244.375V86.3958H218V50Z" fill="white"/>
<path d="M248.206 50H274.706V57.6667H259.706V64.3125H272.331V71.2083H259.706V78.6042H274.644V86.3958H248.206V50Z" fill="white"/>
<path d="M279.426 50H305.551V57.9167H290.926V65.125H302.988V72.0833H290.926V86.3958H279.426V50Z" fill="white"/>
<path d="M328.538 86.3958H317.038V57.9792H306.768V50H338.809V57.9792H328.538V86.3958Z" fill="white"/>
<path d="M351.962 50H363.462V77.9583H378.337V86.3958H351.962V50Z" fill="white"/>
<path d="M403.564 78.4167H392.96L391.043 86.3958H379.293L391.043 50H406.043L417.293 86.3958H405.48L403.564 78.4167ZM398.189 57.8542L394.418 71.3333H402.022L398.46 57.8542H398.189Z" fill="white"/>
<path d="M431.139 71.7083V86.3958H420.473V50H431.264L440.91 64.6875C442.353 66.8542 443.457 68.6823 444.223 70.1667H444.431V50H455.014V86.3958H444.16L434.264 71.0625L431.389 66.7292H431.202L431.139 71.7083Z" fill="white"/>
<path d="M461.025 50H487.525V57.6667H472.525V64.3125H485.15V71.2083H472.525V78.6042H487.463V86.3958H461.025V50Z" fill="white"/>
<path d="M282.79 107.893C282.316 107.201 281.686 106.659 280.894 106.268C280.102 105.867 279.175 105.664 278.123 105.664C276.842 105.664 275.8 105.945 274.998 106.497C274.191 107.055 273.79 107.8 273.79 108.727C273.79 109.268 273.998 109.768 274.415 110.227C274.832 110.675 275.566 111.06 276.623 111.393L280.582 112.685C281.717 113.05 282.571 113.55 283.144 114.185C283.712 114.81 283.998 115.539 283.998 116.372C283.998 117.195 283.733 117.935 283.207 118.602C282.691 119.258 281.983 119.768 281.082 120.143C280.175 120.503 279.17 120.685 278.061 120.685C276.655 120.685 275.384 120.388 274.248 119.789C273.108 119.195 272.295 118.409 271.811 117.435C271.754 117.31 271.774 117.216 271.873 117.143L272.519 116.727C272.629 116.643 272.717 116.654 272.79 116.747C273.316 117.654 274.024 118.352 274.915 118.852C275.8 119.341 276.852 119.581 278.061 119.581C279.394 119.581 280.504 119.3 281.394 118.727C282.295 118.159 282.748 117.425 282.748 116.518C282.748 115.852 282.477 115.289 281.936 114.831C281.394 114.362 280.509 113.935 279.29 113.56L276.269 112.622C274.905 112.206 273.941 111.695 273.373 111.081C272.816 110.471 272.54 109.763 272.54 108.956C272.54 107.654 273.066 106.596 274.123 105.789C275.191 104.971 276.53 104.56 278.144 104.56C279.363 104.56 280.462 104.8 281.436 105.268C282.405 105.727 283.175 106.388 283.748 107.247C283.832 107.346 283.821 107.425 283.727 107.477L283.061 107.935C282.936 108.008 282.842 107.992 282.79 107.893Z" fill="white"/>
<path d="M300.505 120.685C299.073 120.685 297.817 120.352 296.734 119.685C295.661 119.008 294.838 118.07 294.255 116.872C293.672 115.664 293.38 114.279 293.38 112.706C293.38 111.122 293.677 109.721 294.276 108.497C294.869 107.263 295.713 106.3 296.797 105.602C297.88 104.909 299.119 104.56 300.526 104.56C301.911 104.56 303.14 104.904 304.213 105.581C305.297 106.263 306.135 107.221 306.734 108.456C307.328 109.695 307.63 111.091 307.63 112.643C307.63 114.216 307.328 115.612 306.734 116.831C306.135 118.055 305.297 119.008 304.213 119.685C303.14 120.352 301.906 120.685 300.505 120.685ZM300.567 119.581C302.359 119.581 303.776 118.951 304.817 117.685C305.869 116.425 306.401 114.742 306.401 112.643C306.401 111.258 306.156 110.039 305.672 108.997C305.198 107.956 304.515 107.143 303.63 106.56C302.739 105.966 301.703 105.664 300.526 105.664C299.343 105.664 298.302 105.966 297.401 106.56C296.51 107.143 295.823 107.966 295.338 109.018C294.849 110.076 294.609 111.284 294.609 112.643C294.609 114.018 294.849 115.237 295.338 116.289C295.823 117.331 296.515 118.143 297.422 118.727C298.323 119.3 299.369 119.581 300.567 119.581Z" fill="white"/>
<path d="M325.146 104.852C325.24 104.852 325.292 104.909 325.292 105.018V105.706C325.292 105.82 325.23 105.872 325.105 105.872H321.209C321.068 105.872 321.001 105.945 321.001 106.081V120.081C321.001 120.289 320.917 120.393 320.751 120.393H320.063C319.907 120.393 319.834 120.3 319.834 120.102V106.081C319.834 105.945 319.777 105.872 319.667 105.872H316.313C316.199 105.872 316.146 105.82 316.146 105.706V105.018C316.146 104.909 316.199 104.852 316.313 104.852H319.626C319.761 104.852 319.834 104.784 319.834 104.643V102.268C319.834 101.034 320.094 100.117 320.626 99.5183C321.152 98.9245 321.99 98.6224 323.146 98.6224H325.251C325.376 98.6224 325.438 98.6954 325.438 98.8308V99.4558C325.438 99.5964 325.36 99.6641 325.209 99.6641H322.855C322.146 99.6641 321.657 99.8516 321.396 100.227C321.131 100.602 321.001 101.195 321.001 101.997V104.643C321.001 104.784 321.068 104.852 321.209 104.852H325.146Z" fill="white"/>
<path d="M337.405 105.872C337.264 105.872 337.197 105.945 337.197 106.081V116.747C337.197 117.779 337.342 118.471 337.634 118.831C337.926 119.195 338.384 119.372 339.009 119.372H341.342C341.493 119.372 341.572 119.445 341.572 119.581V120.081C341.572 120.18 341.514 120.242 341.405 120.268C341.072 120.352 340.306 120.393 339.113 120.393C337.957 120.393 337.155 120.133 336.697 119.602C336.249 119.076 336.03 118.175 336.03 116.893V106.081C336.03 105.945 335.957 105.872 335.822 105.872H333.092C332.978 105.872 332.926 105.82 332.926 105.706V105.018C332.926 104.909 332.978 104.852 333.092 104.852H335.842C335.967 104.852 336.03 104.784 336.03 104.643L336.301 99.8516C336.301 99.6589 336.374 99.5599 336.53 99.5599H336.947C337.113 99.5599 337.197 99.6745 337.197 99.8933V104.643C337.197 104.784 337.264 104.852 337.405 104.852H341.488C341.598 104.852 341.655 104.909 341.655 105.018V105.706C341.655 105.82 341.598 105.872 341.488 105.872H337.405Z" fill="white"/>
<path d="M370.405 104.852C370.488 104.852 370.55 104.883 370.592 104.935C370.644 104.977 370.66 105.034 370.634 105.102L366.321 120.081C366.264 120.289 366.097 120.393 365.821 120.393H365.03C364.738 120.393 364.561 120.299 364.509 120.102L360.405 107.31C360.347 107.159 360.3 107.081 360.259 107.081C360.217 107.081 360.165 107.159 360.113 107.31L356.3 120.081C356.243 120.289 356.082 120.393 355.821 120.393H354.946C354.655 120.393 354.478 120.299 354.425 120.102L349.842 105.143L349.821 105.06C349.821 104.924 349.905 104.852 350.071 104.852H350.759C350.925 104.852 351.04 104.93 351.113 105.081L355.175 118.435C355.243 118.633 355.311 118.727 355.384 118.727C355.467 118.727 355.535 118.617 355.592 118.393L359.634 105.018C359.675 104.909 359.769 104.852 359.925 104.852H360.613C360.79 104.852 360.91 104.93 360.967 105.081L365.238 118.435C365.306 118.633 365.368 118.727 365.425 118.727C365.493 118.727 365.561 118.617 365.634 118.393L369.53 105.06C369.582 104.924 369.707 104.852 369.905 104.852H370.405Z" fill="white"/>
<path d="M389.786 118.289C388.187 119.888 386.333 120.685 384.223 120.685C382.682 120.685 381.463 120.305 380.577 119.539C379.687 118.779 379.244 117.742 379.244 116.435C379.244 113.466 381.65 111.768 386.473 111.352L389.557 111.102C389.89 111.06 390.057 110.914 390.057 110.664V109.747C390.057 108.497 389.661 107.508 388.869 106.768C388.077 106.034 387.015 105.664 385.682 105.664C383.749 105.664 382.109 106.57 380.765 108.372C380.723 108.43 380.671 108.471 380.619 108.497C380.577 108.529 380.525 108.518 380.473 108.477L379.765 108.039C379.666 107.987 379.666 107.888 379.765 107.747C380.432 106.779 381.255 106.008 382.244 105.435C383.244 104.852 384.411 104.56 385.744 104.56C387.411 104.56 388.734 105.018 389.723 105.935C390.723 106.841 391.223 108.07 391.223 109.622V120.102C391.223 120.3 391.124 120.393 390.932 120.393H390.411C390.229 120.393 390.14 120.305 390.14 120.122L390.098 118.331C390.067 118.237 390.025 118.185 389.973 118.185C389.932 118.175 389.869 118.206 389.786 118.289ZM390.057 112.581C390.057 112.279 389.916 112.143 389.64 112.185L387.036 112.393C384.77 112.56 383.109 112.977 382.057 113.643C380.999 114.3 380.473 115.201 380.473 116.352C380.473 117.352 380.827 118.143 381.536 118.727C382.255 119.3 383.208 119.581 384.39 119.581C385.098 119.581 385.796 119.456 386.494 119.206C387.187 118.945 387.817 118.591 388.39 118.143C388.932 117.716 389.338 117.263 389.619 116.789C389.911 116.305 390.057 115.831 390.057 115.372V112.581Z" fill="white"/>
<path d="M402.647 120.393C402.465 120.393 402.376 120.305 402.376 120.122V105.102C402.376 104.935 402.449 104.852 402.605 104.852H403.23C403.381 104.852 403.459 104.93 403.459 105.081V107.081C403.459 107.18 403.48 107.242 403.522 107.268C403.563 107.284 403.616 107.247 403.688 107.164C404.574 106.221 405.376 105.555 406.084 105.164C406.803 104.763 407.563 104.56 408.355 104.56C409.048 104.56 409.397 104.659 409.397 104.852V105.602C409.397 105.701 409.345 105.747 409.251 105.747C409.178 105.747 409.084 105.747 408.959 105.747C408.834 105.737 408.631 105.727 408.355 105.727C407.73 105.727 407.032 105.925 406.272 106.31C405.506 106.701 404.86 107.206 404.334 107.831C403.803 108.445 403.543 109.06 403.543 109.685V120.122C403.543 120.305 403.459 120.393 403.293 120.393H402.647Z" fill="white"/>
<path d="M419.13 113.352C419.13 114.451 419.39 115.477 419.921 116.435C420.447 117.393 421.161 118.159 422.067 118.727C422.968 119.3 423.952 119.581 425.025 119.581C427.359 119.581 429.067 118.675 430.15 116.852C430.244 116.685 430.359 116.643 430.484 116.727L431.15 117.164C431.275 117.247 431.286 117.346 431.192 117.456C429.843 119.612 427.786 120.685 425.025 120.685C423.635 120.685 422.4 120.352 421.317 119.685C420.234 119.018 419.39 118.091 418.796 116.893C418.197 115.685 417.9 114.305 417.9 112.747C417.9 111.055 418.197 109.596 418.796 108.372C419.406 107.138 420.244 106.195 421.317 105.539C422.4 104.888 423.635 104.56 425.025 104.56C427.093 104.56 428.723 105.247 429.921 106.622C431.13 107.997 431.734 109.909 431.734 112.352V112.497C431.734 112.638 431.702 112.747 431.65 112.831C431.609 112.904 431.51 112.935 431.359 112.935H419.296C419.182 112.935 419.13 113.076 419.13 113.352ZM430.005 111.893C430.197 111.893 430.327 111.867 430.4 111.81C430.468 111.742 430.505 111.633 430.505 111.477C430.505 110.409 430.281 109.43 429.838 108.539C429.39 107.638 428.755 106.935 427.921 106.435C427.088 105.925 426.114 105.664 425.005 105.664C423.765 105.664 422.702 105.971 421.817 106.581C420.942 107.18 420.275 107.956 419.817 108.914C419.359 109.872 419.135 110.867 419.15 111.893H430.005Z" fill="white"/>
</svg>

<svg fill="none" height="149" width="488" xmlns="http://www.w3.org/2000/svg"><g fill="#fff"><path d="M21.9 148.4h-1A19.9 19.9 0 0 1 2.7 120c.9-1.8 2-3.4 3.2-4.8l27-29.9a19.5 19.5 0 0 0 5-13.7 19.5 19.5 0 0 0-5.7-13.5L8.6 34.6A19.8 19.8 0 0 1 36.2 6.2l55.4 52.2A21 21 0 0 1 96 65a20 20 0 0 1-4.2 22l-56.4 55.7a19.6 19.6 0 0 1-13.6 5.8z"/><path d="M106.3 148.4h-1a20 20 0 0 1-19.8-22.9 19.7 19.7 0 0 1 4.9-10.2l26.9-29.9a19.5 19.5 0 0 0 5-13.7 19.6 19.6 0 0 0-5.7-13.5L93 34.6a19.8 19.8 0 0 1 27.7-28.4L176 58.4a19 19 0 0 1 5.2 8.3 20.2 20.2 0 0 1-.5 13.7 18.7 18.7 0 0 1-4.4 6.5L120 142.6a19.7 19.7 0 0 1-13.7 5.8zM218 50h11.5v28h14.9v8.4H218zM248.2 50h26.5v7.7h-15v6.6h12.6v7h-12.6v7.3h15v7.8h-26.5zM279.4 50h26.2v8h-14.7V65h12v7h-12v14.3h-11.5zM328.5 86.4H317V58h-10.2v-8h32v8h-10.3zM352 50h11.5v28h14.8v8.4H352zM403.6 78.4H393l-2 8h-11.7L391 50h15l11.3 36.4h-11.8zM398.2 58l-3.8 13.4h7.6L398.5 58zM431.1 71.7v14.7h-10.6V50h10.8l9.6 14.7c1.5 2.2 2.6 4 3.3 5.5h.2V50H455v36.4h-10.8l-10-15.3-2.8-4.4h-.2zM461 50h26.5v7.7h-15v6.6h12.6v7h-12.6v7.3h15v7.8H461zM282.8 107.9a4.9 4.9 0 0 0-2-1.6 6 6 0 0 0-2.7-.6c-1.3 0-2.3.2-3.1.8-.8.6-1.2 1.3-1.2 2.2 0 .6.2 1 .6 1.5.4.5 1.2.9 2.2 1.2l4 1.3c1.1.3 2 .8 2.5 1.5.6.6.9 1.3.9 2.2 0 .8-.3 1.5-.8 2.2-.5.7-1.2 1.2-2.1 1.5a8 8 0 0 1-6.8-.4c-1.2-.5-2-1.3-2.5-2.3v-.3l.7-.4h.3c.5 1 1.2 1.7 2.1 2.2.9.4 2 .7 3.2.7a6 6 0 0 0 3.3-.9c.9-.5 1.3-1.3 1.3-2.2 0-.6-.2-1.2-.8-1.7-.5-.4-1.4-.9-2.6-1.2l-3-1c-1.4-.4-2.4-.9-3-1.5a3 3 0 0 1-.8-2.1c0-1.3.6-2.4 1.6-3.2 1-.8 2.4-1.2 4-1.2 1.3 0 2.4.2 3.3.7 1 .4 1.8 1 2.3 2 .1 0 .1.1 0 .2l-.6.4h-.3zM300.5 120.7a7 7 0 0 1-3.8-1c-1-.7-1.9-1.6-2.4-2.8a9.5 9.5 0 0 1-1-4.2c0-1.6.4-3 1-4.2a6.8 6.8 0 0 1 6.3-4 6.8 6.8 0 0 1 6.1 4 9.4 9.4 0 0 1 0 8.4 6.8 6.8 0 0 1-2.5 2.8c-1 .7-2.3 1-3.7 1zm0-1.1c1.9 0 3.3-.6 4.3-2 1-1.2 1.6-2.9 1.6-5 0-1.3-.2-2.6-.7-3.6-.5-1-1.2-1.9-2-2.4-1-.6-2-1-3.2-1a5.5 5.5 0 0 0-5.2 3.4c-.5 1-.7 2.3-.7 3.6 0 1.4.2 2.6.7 3.7.5 1 1.2 1.8 2.1 2.4 1 .6 2 .9 3.2.9zM325.1 104.9l.2.1v.7c0 .1 0 .2-.2.2h-3.9c-.1 0-.2 0-.2.2v14c0 .2 0 .3-.2.3h-.7c-.2 0-.3-.1-.3-.3v-14l-.1-.2h-3.4c-.1 0-.2 0-.2-.2v-.7l.2-.1h3.3c.2 0 .2-.1.2-.3v-2.3c0-1.3.3-2.2.8-2.8.6-.6 1.4-.9 2.5-.9h2.2l.1.2v.7c0 .1 0 .2-.2.2H323c-.8 0-1.2.2-1.5.5-.3.4-.4 1-.4 1.8v2.6c0 .2 0 .3.2.3zM337.4 105.9c-.1 0-.2 0-.2.2v10.6c0 1 .1 1.8.4 2.1.3.4.8.6 1.4.6h2.3c.2 0 .3 0 .3.2v.5l-.2.2h-2.3c-1.1 0-2-.2-2.4-.7-.5-.5-.7-1.4-.7-2.7V106c0-.2 0-.2-.2-.2h-2.7c-.1 0-.2 0-.2-.2v-.7l.2-.1h2.7c.2 0 .2-.1.2-.3l.3-4.7c0-.2 0-.3.2-.3h.4c.2 0 .3 0 .3.3v4.7c0 .2 0 .3.2.3h4l.3.1v.7l-.2.2zM370.4 104.9h.2v.2l-4.3 15c0 .2-.2.3-.5.3h-.8c-.3 0-.4-.1-.5-.3l-4.1-12.8-.1-.2-.2.2-3.8 12.8c0 .2-.2.3-.5.3h-.9c-.2 0-.4-.1-.5-.3l-4.6-15c0-.2.1-.2.3-.2h.7c.1 0 .2 0 .3.2l4 13.3.3.3.2-.3 4-13.4.3-.1h.7c.2 0 .3 0 .4.2l4.2 13.3.2.3s.2 0 .2-.3l4-13.3c0-.2.1-.2.3-.2zM389.8 118.3a7.6 7.6 0 0 1-5.6 2.4c-1.5 0-2.7-.4-3.6-1.2a3.9 3.9 0 0 1-1.4-3c0-3 2.4-4.7 7.3-5.1l3-.3c.4 0 .6-.2.6-.4v-1c0-1.2-.4-2.2-1.2-3a4.5 4.5 0 0 0-3.2-1c-2 0-3.6.9-5 2.7v.1h-.2l-.7-.5v-.3a6.8 6.8 0 0 1 6-3.2c1.6 0 3 .5 4 1.4 1 1 1.4 2.2 1.4 3.7v10.5c0 .2 0 .3-.3.3h-.5c-.2 0-.3-.1-.3-.3v-1.8l-.1-.1h-.2zm.3-5.7c0-.3-.2-.5-.5-.4l-2.6.2c-2.2.2-3.9.6-5 1.2a3 3 0 0 0-1.5 2.8 3 3 0 0 0 1 2.3c.8.6 1.7.9 2.9.9a7.1 7.1 0 0 0 4-1.4 5 5 0 0 0 1.2-1.4c.3-.5.5-1 .5-1.4zM402.6 120.4c-.1 0-.2-.1-.2-.3v-15c0-.2 0-.2.2-.2h.6c.2 0 .3 0 .3.2v2.2l.2-.1c.9-1 1.7-1.6 2.4-2 .7-.4 1.5-.6 2.3-.6.6 0 1 0 1 .3v.7l-.1.1H408.4c-.7 0-1.4.2-2.1.6-.8.4-1.4 1-2 1.5-.5.6-.8 1.3-.8 1.9V120c0 .2 0 .3-.2.3zM419.1 113.4a6.2 6.2 0 0 0 3 5.3c.9.6 1.9.9 3 .9 2.3 0 4-1 5-2.7.1-.2.3-.3.4-.2l.7.5v.3a6.8 6.8 0 0 1-6.2 3.2 6.8 6.8 0 0 1-6.2-3.8 9.2 9.2 0 0 1-.9-4.2c0-1.6.3-3.1.9-4.3a6.7 6.7 0 0 1 2.5-2.9 7 7 0 0 1 3.7-1c2 0 3.7.7 5 2.1a8.4 8.4 0 0 1 1.7 5.8v.4l-.3.1h-12.1c-.1 0-.2.2-.2.5zm10.9-1.5h.4l.1-.4c0-1-.2-2-.7-3a5 5 0 0 0-1.9-2c-.8-.6-1.8-.8-2.9-.8-1.2 0-2.3.3-3.2.9-.9.6-1.5 1.4-2 2.3s-.7 2-.6 3z"/></g></svg>
